icon/ir/organic-food.svg

<svg viewBox="0 0 24 24" stroke-width="1.5" fill="none" xmlns="http://www.w3.org/2000/svg" height="1em" width="1em">
  <path d="M9 18C9 18 9.9 14.2588 12 12" stroke="currentColor" stroke-linecap="round" stroke-linejoin="round"/>
  <path d="M16.1857 7.24133L16.5601 11.1306C16.8031 13.6536 14.9114 15.9001 12.3883 16.143C9.91266 16.3814 7.67 14.5718 7.43162 12.0962C7.19324 9.62055 9.00691 7.4204 11.4826 7.18203L15.6293 6.78274C15.9096 6.75575 16.1587 6.96107 16.1857 7.24133Z" stroke="currentColor" stroke-linecap="round" stroke-linejoin="round"/>
  <path d="M12 22C17.5228 22 22 17.5228 22 12C22 6.47715 17.5228 2 12 2C6.47715 2 2 6.47715 2 12C2 17.5228 6.47715 22 12 22Z" stroke="currentColor" stroke-linecap="round" stroke-linejoin="round"/>
</svg>

<svg width="24" height="24" stroke-width="1.5" fill="none" xmlns="http://www.w3.org/2000/svg"><path d="M9 18s.9-3.741 3-6" stroke="currentColor" stroke-linecap="round" stroke-linejoin="round"/><path d="m16.186 7.241.374 3.89c.243 2.523-1.649 4.77-4.172 5.012-2.475.238-4.718-1.571-4.956-4.047a4.503 4.503 0 0 1 4.05-4.914l4.147-.4a.51.51 0 0 1 .557.46Z" stroke="currentColor" stroke-linecap="round" stroke-linejoin="round"/><path d="M12 22c5.523 0 10-4.477 10-10S17.523 2 12 2 2 6.477 2 12s4.477 10 10 10Z" stroke="currentColor" stroke-linecap="round" stroke-linejoin="round"/></svg>
